fs/bluetooth_20_regular.svg

<svg viewBox="0 0 20 20" fill="none" xmlns="http://www.w3.org/2000/svg" height="1em" width="1em">
  <path d="M9.32233 2.03266C9.12829 2.10643 9.00002 2.29243 9.00002 2.50002V8.82843L6.80893 7.10686C6.5918 6.93626 6.27747 6.97397 6.10686 7.19111C5.93626 7.40825 5.97397 7.72257 6.19111 7.89318L8.87254 10L6.19111 12.1069C5.97397 12.2775 5.93626 12.5918 6.10686 12.8089C6.27747 13.0261 6.5918 13.0638 6.80893 12.8932L9.00002 11.1716V17.5C9.00002 17.7076 9.12829 17.8936 9.32233 17.9674C9.51637 18.0412 9.73581 17.9874 9.87373 17.8322L13.8737 13.3322C13.9653 13.2292 14.0103 13.0929 13.998 12.9555C13.9858 12.8182 13.9173 12.692 13.8089 12.6069L10.4911 10L13.8089 7.39318C13.9173 7.308 13.9858 7.18183 13.998 7.04451C14.0103 6.90718 13.9653 6.77089 13.8737 6.66784L9.87373 2.16784C9.73581 2.01268 9.51637 1.95889 9.32233 2.03266ZM10 10.8859L12.7733 13.0649L10 16.1849V10.8859ZM10 9.11415V3.81512L12.7733 6.93511L10 9.11415Z" fill="#212121"/>
</svg>

<svg viewBox="0 0 20 20" fill="none" xmlns="http://www.w3.org/2000/svg" height="1em" width="1em">
  <path d="M9.322 2.033A.5.5 0 0 0 9 2.5v6.328L6.809 7.107a.5.5 0 0 0-.618.786L8.873 10 6.19 12.107a.5.5 0 1 0 .618.786L9 11.172V17.5a.5.5 0 0 0 .874.332l4-4.5a.5.5 0 0 0-.065-.725L10.49 10l3.318-2.607a.5.5 0 0 0 .065-.725l-4-4.5a.5.5 0 0 0-.552-.135ZM10 10.886l2.773 2.179L10 16.185v-5.3Zm0-1.772V3.815l2.773 3.12L10 9.115Z" fill="#212121"/>
</svg>
